assets/02_eyes/Eye 44.svg

<svg width="400" height="180" viewBox="0 0 400 180" fill="none" xmlns="http://www.w3.org/2000/svg">
<g clip-path="url(#clip0_70_1683)">
<g clip-path="url(#clip1_70_1683)">
<path d="M111 7.62939e-06C111 49.7071 151.517 90 201.5 90C251.483 90 292 49.7071 292 7.62939e-06H111Z" fill="white"/>
<path d="M201.468 0C226.45 0 246.702 20.252 246.702 45.234C246.702 70.2161 226.45 90.4681 201.468 90.4681C176.486 90.4681 156.234 70.2161 156.234 45.234C156.234 20.252 176.486 0 201.468 0Z" fill="#FF71EE"/>
<path d="M215.851 23.0634C209.689 22.6849 204.558 26.1547 201.362 31.1807C198.775 27.1221 194.759 23.8415 189.859 23.1686C179.323 21.7175 172.846 29.8348 173.33 39.8238C173.982 52.8199 185.106 59.6544 193.938 67.4773C196.399 69.6643 198.796 71.9355 201.236 74.1646L201.635 74.0595C206.745 68.9073 212.528 64.4701 217.891 59.5913C225.461 52.6937 230.193 47.0789 229.373 36.0805C228.847 28.9306 222.896 23.484 215.851 23.0424V23.0634Z" fill="white"/>
</g>
<g clip-path="url(#clip2_70_1683)">
<path d="M110 90.5433L110 90L290 90L290 90.5641C289.686 139.897 249.523 179.786 200 179.786C150.477 179.786 110.272 139.876 110 90.5433Z" fill="white"/>
<path d="M136.51 90L263.469 90C263.469 124.978 235.053 153.354 200 153.354C164.946 153.354 136.51 124.978 136.51 90Z" fill="#0065B1"/>
<path d="M171.689 90L228.311 90C228.311 105.588 215.642 118.229 200.021 118.229C184.399 118.229 171.71 105.588 171.71 90L171.689 90Z" fill="white"/>
</g>
</g>
<defs>
<clipPath id="clip0_70_1683">
<rect width="400" height="180" fill="white"/>
</clipPath>
<clipPath id="clip1_70_1683">
<rect width="181" height="90" fill="white" transform="matrix(1 0 0 -1 111 90)"/>
</clipPath>
<clipPath id="clip2_70_1683">
<rect width="180" height="90" fill="white" transform="translate(290 180) rotate(180)"/>
</clipPath>
</defs>
</svg>

<svg xmlns="http://www.w3.org/2000/svg" width="400" height="180" fill="none" viewBox="0 0 400 180"><g clip-path="url(#Eye_44_svg_clip0_70_1683)"><g clip-path="url(#Eye_44_svg_clip1_70_1683)"><path fill="#fff" d="M111 0c0 49.707 40.517 90 90.5 90S292 49.707 292 0z"/><path fill="#ff71ee" d="M201.468 0c24.982 0 45.234 20.252 45.234 45.234s-20.252 45.234-45.234 45.234-45.234-20.252-45.234-45.234S176.486 0 201.468 0"/><path fill="#fff" d="M215.851 23.063c-6.162-.378-11.293 3.092-14.489 8.118-2.587-4.059-6.603-7.34-11.503-8.012-10.536-1.451-17.013 6.666-16.529 16.655.652 12.996 11.776 19.83 20.608 27.653 2.461 2.187 4.858 4.459 7.298 6.688l.399-.106c5.11-5.152 10.893-9.589 16.256-14.468 7.57-6.897 12.302-12.512 11.482-23.51-.526-7.15-6.477-12.597-13.522-13.039z"/></g><g clip-path="url(#Eye_44_svg_clip2_70_1683)"><path fill="#fff" d="M110 90.543V90h180v.564c-.314 49.333-40.477 89.222-90 89.222s-89.728-39.91-90-89.243"/><path fill="#0065b1" d="M136.51 90h126.959c0 34.978-28.416 63.354-63.469 63.354-35.054 0-63.49-28.376-63.49-63.354"/><path fill="#fff" d="M171.689 90h56.622c0 15.588-12.669 28.229-28.29 28.229-15.622 0-28.311-12.641-28.311-28.229z"/></g></g><defs><clipPath id="Eye_44_svg_clip0_70_1683"><rect width="400" height="180" fill="#fff"/></clipPath><clipPath id="Eye_44_svg_clip1_70_1683"><rect width="181" height="90" fill="#fff" transform="matrix(1 0 0 -1 111 90)"/></clipPath><clipPath id="Eye_44_svg_clip2_70_1683"><rect width="180" height="90" fill="#fff" transform="matrix(-1 0 0 -1 290 180)"/></clipPath></defs></svg>
